X: 1
T: Andy Renwick's Ferret
R: reel
M: 4/4
L: 1/8
K: Ador
|:cA (3AAA ABcd|eaag agef|gd (3ddd egde|degd egdB|
cA (3AAA ABcd|eaag agef|gd (3ddd efgd|1 edgB A2 AB:|2 edgB A2 Bd||
eaag ageg|a2 ag agef|gd (3ddd egde|degd egdg|
eaag ageg|a2 ag agef|gd (3ddd efgd|edgB A2 Bd|
eaag ageg|a2 ag agef|gd (3ddd egde|degd egdB|
cA (3AAA ABcd|eaag agef|gd (3ddd efgd|edgB A2 AB||
|:cA (3AAA A2 cA|(3AAA cA agef|gd (3ddd ^cdcd|(3ddd ^cd cddB|
cA (3AAA A2 cA|(3AAA cA agef|gd (3ddd efgd|1 edgB A2 AB:|2 edgB A2 Bd||
eaag ageg|ageg ~a3 f|gd (3ddd eggd|^cdgd eggd|
eaag ageg|ageg ~a3 f|gd (3ddd efgd|edgB A2 Bd|
eaag ageg|ageg ~a3 f|gd (3ddd eggd|^cdgd eggd|
cA (3AAA A2 cA|(3AAA cA agef|gd (3ddd efgd|edgB A2 AB|


Tune 439	Setting 24545

